X: 20051
T: Jimmy Kennedy's
R: jig
M: 6/8
K: Dmajor
B|:"D"AFD "D"D2B|"G"ABG "D"FED|"D"FAd "D"fed|"A"ceA "D"A2A|
"D"ABG "D"FED|"G"BdB "D"AFD|"D"dfa "G"gfe|1 "A"edc "D" d2B:|2 "A"edc "D"dfg||
|:"D"afd "A"gec|"D"ded "D"AFA|"D"DFA "D"def|"G"gfg "A"efg|
"D"afd "A"ecA|"D"dAG "D"FGA|"D"dfa "G"gfe|1 "A"edc "D"dfg:|2 "A"edc "D"d3||

